X: 2812
T: Bantry Lasses, The
R: reel
M: 4/4
K: Dmajor
DFFE DFAF|G2FG EFGE|F3E DFAB|=cAGE EDDF|
(3ABA FD DFAF|G2FG EFGE|F3E DFAd|cAGE ED D2:|
|:Addc dfed|(3Bcd ef gefd|Addc dfed|cAGE ED D2|
Addc dfed|(3Bcd ef g3 e|f3d efed|cAGE ED D2:|

